Catalina-light/actions/16/lensautofix.svg

<svg xmlns="http://www.w3.org/2000/svg" width="16" height="16" viewBox="0 0 16 16">
 <defs>
  <style id="current-color-scheme" type="text/css">
   .ColorScheme-Text { color:#5c616c; } .ColorScheme-Highlight { color:#5294e2; }
  </style>
 </defs>
 <path style="fill:currentColor" class="ColorScheme-Text" d="M 8 1 A 7 7 0 0 0 1 8 A 7 7 0 0 0 8 15 A 7 7 0 0 0 15 8 A 7 7 0 0 0 8 1 z M 8 3 A 5 5 0 0 1 13 8 A 5 5 0 0 1 8 13 A 5 5 0 0 1 3 8 A 5 5 0 0 1 8 3 z M 8.0957031 4 C 5.8866031 4 4.0957031 5.7909 4.0957031 8 C 4.0957031 10.2091 5.8866031 12 8.0957031 12 C 10.304803 12 12.095703 10.2091 12.095703 8 C 12.094703 5.9252 10.506553 4.1958781 8.4394531 4.0175781 C 8.0000031 3.9999781 8.0957031 4 8.0957031 4 z M 8.0957031 5 C 9.7526031 5 11.095703 6.3432 11.095703 8 C 11.095703 9.6568 9.7526031 11 8.0957031 11 C 6.4389031 11 5.0957031 9.6568 5.0957031 8 C 5.0957031 6.3432 6.4389031 5 8.0957031 5 z M 8.0957031 6 C 6.9877031 6 6.0957031 6.892 6.0957031 8 C 6.0957031 9.108 6.9877031 10 8.0957031 10 C 9.2037031 10 10.095703 9.108 10.095703 8 C 10.095703 7.79519 10.0567 7.6017956 10 7.4160156 C 9.84212 7.7597256 9.5000231 8 9.0957031 8 C 8.5417031 8 8.0957031 7.554 8.0957031 7 C 8.0957031 6.59568 8.3359675 6.2535931 8.6796875 6.0957031 C 8.4939075 6.0390031 8.3005131 6 8.0957031 6 z"/>
</svg>

<svg width="16" height="16" viewBox="0 0 16 16" xmlns="http://www.w3.org/2000/svg">
<defs>
<style id="current-color-scheme" type="text/css">.ColorScheme-Text { color:#5c616c; } .ColorScheme-Highlight { color:#5294e2; }</style>
</defs>
<path class="ColorScheme-Text" d="m8 1a7 7 0 0 0-7 7 7 7 0 0 0 7 7 7 7 0 0 0 7-7 7 7 0 0 0-7-7zm0 2a5 5 0 0 1 5 5 5 5 0 0 1-5 5 5 5 0 0 1-5-5 5 5 0 0 1 5-5zm0.095703 1c-2.2091 0-4 1.7909-4 4s1.7909 4 4 4c2.2091 0 4-1.7909 4-4-1e-3 -2.0748-1.5892-3.8041-3.6562-3.9824-0.43945-0.0176-0.34375-0.017578-0.34375-0.017578zm0 1c1.6569 0 3 1.3432 3 3s-1.3431 3-3 3c-1.6568 0-3-1.3432-3-3s1.3432-3 3-3zm0 1c-1.108 0-2 0.892-2 2s0.892 2 2 2 2-0.892 2-2c0-0.20481-0.039003-0.3982-0.095703-0.58398-0.15788 0.34371-0.49998 0.58398-0.9043 0.58398-0.554 0-1-0.446-1-1 0-0.40432 0.24026-0.74641 0.58398-0.9043-0.18578-0.0567-0.37917-0.095703-0.58398-0.095703z" fill="#363636"/>
</svg>
